X:1
T:Title
%%score ( 1 2 ) { 3 | 4 }
L:1/8
Q:1/4=92
M:3/4
K:E
V:1 treble nm="Grand Piano, Soprano"
V:2 treble 
V:3 bass nm="Choir Pad, Rich in Mercy"
V:4 bass 
V:1
 [EG]>[EG] [EA]2 [EG]2 | [DF]>[DG] E2 B,2 | [FA]>[EG] [EG]2 B,2 | [DF]>[EG] FB [DA]2 | %4
w: By~H.~S.~Thursby,~1887 * * *||||
 [EG]>[EA] [EB]2 [EG]2 | [EA]>[EB] [Ec]2 [EB]2 | [EG]>[EG] [EG]2 E2 | [DF]>[DG] E4 | %8
w: ||||
 [FB]c/d/ [Ee]2 [EB]2 | [Ec]>[Ee] [Ec]2 [EB]2 | [Ge]>[Gc] [FB]2 [DF]2 | [Ec]>[DB] [DB]4 | %12
w: ||||
 [EG]>[EA] [EB]2 [EG]2 | [EA]>[EB] [Ec]2 [Ee]2 | [Ed]>[Ec] [EB]2 [EG]2 | [Dc]>[DB] E4 | %16
w: ||||
 [GB]>[GB] [GB]2 [EG]2 | [ce]>[Ac] [GB]2 [EG]2 | [Ad]>[Ac] [FB]2 [DF]2 | [Dc]>[DB] [EB]4 | %20
w: ||||
 [GB]>[GB] [GB]2 [EG]2 | [ce]>[Ac] [GB]2 [EG]2 | [Ec]>[EB] [EG]2 [B,E]2 | [DF]>[B,E] [B,E]4- | %24
w: ||||
 [B,E]4 z2 |] %25
w: |
V:2
 x6 | x6 | x6 | z2 D2 z2 | x6 | x6 | x6 | x6 | z F z2 z2 | x6 | x6 | x6 | x6 | x6 | x6 | x6 | x6 | %17
 x6 | x6 | x6 | x6 | x6 | x6 | x6 | x6 |] %25
V:3
 B,>B, C2 B,2 | A,>A, G,2 G,2 | B,>B, B,2 B,2 | B,>B, B,4 | B,>B, B,2 B,2 | B,>B, A,2 B,2 | %6
 B,>B, B,2 B,2 | A,>B, G,4 | B,B, G,2 B,2 | A,>A, A,2 G,2 | C>E D2 B,2 | ^A,>[K:bass]B, B,4 | %12
 B,>B, B,2 B,2 | B,>B, A,2 C2 | A,>A, G,2 B,2 | A,>A, G,4 | z2 B,B, B,B, | z2 B,B, B,B, | %18
 F>E D2 B,2 | A,>[K:bass]A, G,4 | z2 B,B, B,B, | z2 B,B, B,B, | A,>G, B,2 G,2 | A,>G, G,4- | %24
 G,4 z2 |] %25
V:4
 E,>E, E,2 E,2 | B,,>B,, E,2 E,2 | D,>E, B,,2 D,2 | B,,>B,, B,,4 | E,>F, G,2 E,2 | F,>G, z2 G,2 | %6
 E,>E, E,2 G,,2 | B,,>B,, E,4 | D,D, C,2 G,,2 | A,,>C, E,2 E,2 | E,>E, F,2 F,2 | F,>B,, B,,4 | %12
 E,>F, G,2 E,2 | F,>G, z2 A,2 | A,,>A,, B,,2 B,,2 | B,,>B,, E,4 | z2 E,E, E,E, | z2 E,E, E,E, | %18
 B,,>B,, B,,2 B,,2 | B,,>B,, E,4 | z2 E,E, E,E, | z2 E,E, E,E, | E,>E, B,,2 B,,2 | B,,>E, E,4- | %24
 E,4 z2 |] %25

